X: 43512
T: Ymdaith Rhosgadfan
R: polka
M: 2/4
K: Dmajor
fg|aa/a/ aa|ag fe|d>e dB|A4|
ff/f/ ff|ff ed|e2 e>f|e2 fg|
aa/a/ aa|ag fe|d>e dB|A2Ag|
f>a gf|ef/e/ dc|d2 d>c|d2 cd||
ee/e/ ee|ed cB|A>B AG|F3 A|
dd/d/ dd|ff ed|e2 e>f|e2 ag|
f>a gf|e>g fe|d>f ed|B2 g2|
f>a gf|ef/e/ dc|d2 d>c|d2||

